public/cloud-icons/azure/application/api-management-gateway.svg

<?xml version="1.0" encoding="UTF-8" standalone="no"?>
<!-- Generated by Microsoft Visio, SVG Export API Management Gateway.svg Page-1 -->

<svg
   xmlns:dc="http://purl.org/dc/elements/1.1/"
   xmlns:cc="http://creativecommons.org/ns#"
   xmlns:rdf="http://www.w3.org/1999/02/22-rdf-syntax-ns#"
   xmlns:svg="http://www.w3.org/2000/svg"
   xmlns="http://www.w3.org/2000/svg"
   xmlns:sodipodi="http://sodipodi.sourceforge.net/DTD/sodipodi-0.dtd"
   xmlns:inkscape="http://www.inkscape.org/namespaces/inkscape"
   width="56.689999"
   height="39.511051"
   viewBox="0 0 56.69 39.511052"
   xml:space="preserve"
   class="st3"
   version="1.1"
   id="svg30"
   sodipodi:docname="API Management Gateway.svg"
   style="font-size:12px;overflow:visible;color-interpolation-filters:sRGB;fill:none;fill-rule:evenodd;stroke-linecap:square;stroke-miterlimit:3"
   inkscape:version="0.92.5 (2060ec1f9f, 2020-04-08)"><metadata
   id="metadata34"><rdf:RDF><cc:Work
       rdf:about=""><dc:format>image/svg+xml</dc:format><dc:type
         rdf:resource="http://purl.org/dc/dcmitype/StillImage" /></cc:Work></rdf:RDF></metadata><sodipodi:namedview
   pagecolor="#ffffff"
   bordercolor="#666666"
   borderopacity="1"
   objecttolerance="10"
   gridtolerance="10"
   guidetolerance="10"
   inkscape:pageopacity="0"
   inkscape:pageshadow="2"
   inkscape:window-width="640"
   inkscape:window-height="480"
   id="namedview32"
   showgrid="false"
   inkscape:zoom="2.4695105"
   inkscape:cx="28.346399"
   inkscape:cy="13.584863"
   inkscape:window-x="0"
   inkscape:window-y="0"
   inkscape:window-maximized="0"
   inkscape:current-layer="svg30" />
	<style
   type="text/css"
   id="style2">
	<![CDATA[
		.st1 {fill:url(#grad0-6);stroke:none;stroke-linecap:butt;stroke-width:21.8571}
		.st2 {fill:#c8f3ff;stroke:none;stroke-linecap:butt;stroke-width:21.8571}
		.st3 {fill:none;fill-rule:evenodd;font-size:12px;overflow:visible;stroke-linecap:square;stroke-miterlimit:3}
	]]>
	</style>

	<defs
   id="Patterns_And_Gradients">
		<linearGradient
   id="grad0-6"
   x1="0"
   y1="66.929936"
   x2="47.324091"
   y2="66.929936"
   gradientTransform="scale(1.19791,0.83478728)"
   gradientUnits="userSpaceOnUse">
			<stop
   offset="0"
   stop-color="#0078d4"
   stop-opacity="1"
   id="stop4" />
			<stop
   offset="1"
   stop-color="#5ea0ef"
   stop-opacity="1"
   id="stop6" />
		</linearGradient>
	</defs>
	<g
   id="g28"
   transform="translate(-21.8571,-21.856559)">
		<title
   id="title10">Page-1</title>
		<g
   id="group16087-1"
   transform="translate(21.8571,-34.0157)">
			<title
   id="title12">API Management Gateway.16087</title>
			<g
   id="group16088-2">
				<title
   id="title14">Sheet.16088</title>
				<g
   id="shape16089-3">
					<title
   id="title16">Sheet.16089</title>
					<path
   d="M 56.69,82.95 A 12.7393,12.4962 -180 0 0 45.64,70.94 16.0516,15.7453 -180 0 0 29.1,55.88 16.4728,16.1584 -180 0 0 13.36,66.41 15.1992,14.9092 -180 0 0 0,80.75 15.424,15.1296 -180 0 0 15.96,95.29 c 2.43,0 25.76,0.28 27.94,-0.16 A 12.8931,12.6471 -180 0 0 56.69,82.95 Z"
   class="st1"
   id="path18"
   inkscape:connector-curvature="0"
   style="fill:url(#grad0-6);stroke:none;stroke-width:21.85709953;stroke-linecap:butt" />
				</g>
				<g
   id="shape16090-7"
   transform="translate(14.521,-0.186688)">
					<title
   id="title21">Sheet.16090</title>
					<path
   d="m 7.94,95.57 c -0.43,-5.94 1.79,-12.38 5.41,-18.51 0.51,-0.87 1.15,-1.64 1.6,-2.39 a 0.518317,0.508426 0 0 1 0.706611,-0.18073 L 15.97,74.68 20.8,77.45 a 0.516292,0.50644 -180 0 0 0.759253,-0.566021 L 17.93,63.25 A 0.514267,0.504454 -180 0 0 17.300326,62.888541 L 3.41,66.45 A 0.516292,0.50644 -180 0 0 3.278396,67.37748 L 8.1,70.15 8.42,70.33 a 0.516292,0.50644 0 0 1 0.18627,0.693128 L 7.49,72.9 7.47,72.97 7.41,73.08 C 3.18,80.16 0,88.48 0.52,95.46 Z"
   class="st2"
   id="path23"
   inkscape:connector-curvature="0"
   style="fill:#c8f3ff;stroke:none;stroke-width:21.85709953;stroke-linecap:butt" />
				</g>
			</g>
		</g>
	</g>
</svg>

<svg xmlns="http://www.w3.org/2000/svg" xml:space="preserve" width="56.69" height="39.511" style="font-size:12px;overflow:visible;color-interpolation-filters:sRGB;fill-rule:evenodd;stroke-linecap:square;stroke-miterlimit:3" viewBox="0 0 56.69 39.511"><defs><linearGradient id="a" x1="0" x2="47.324" y1="66.93" y2="66.93" gradientTransform="scale(1.19791 .83479)" gradientUnits="userSpaceOnUse"><stop offset="0" stop-color="#0078d4"/><stop offset="1" stop-color="#5ea0ef"/></linearGradient></defs><g transform="translate(-21.857 -21.857)"><title>Page-1</title><g transform="translate(21.857 -34.016)"><title>API Management Gateway.16087</title><title>Sheet.16088</title><title>Sheet.16089</title><path d="M56.69 82.95a12.74 12.496-180 0 0-11.05-12.01A16.052 15.745-180 0 0 29.1 55.88a16.473 16.158-180 0 0-15.74 10.53A15.2 14.91-180 0 0 0 80.75a15.424 15.13-180 0 0 15.96 14.54c2.43 0 25.76.28 27.94-.16a12.893 12.647-180 0 0 12.79-12.18" style="fill:url(#a);stroke:none;stroke-width:21.85709953;stroke-linecap:butt"/><g transform="translate(14.521 -.187)"><title>Sheet.16090</title><path d="M7.94 95.57c-.43-5.94 1.79-12.38 5.41-18.51.51-.87 1.15-1.64 1.6-2.39a.518.508 0 0 1 .707-.18l.313.19 4.83 2.77a.516.506-180 0 0 .76-.566L17.93 63.25a.514.504-180 0 0-.63-.361L3.41 66.45a.516.506-180 0 0-.132.927L8.1 70.15l.32.18a.516.506 0 0 1 .186.693L7.49 72.9l-.02.07-.06.11C3.18 80.16 0 88.48.52 95.46Z" style="fill:#c8f3ff;stroke:none;stroke-width:21.85709953;stroke-linecap:butt"/></g></g></g></svg>
